icons/figma.svg

<svg role="img" viewBox="0 0 24 24" xmlns="http://www.w3.org/2000/svg"><title>Figma icon</title><path d="M15.852 8.981h-4.588V0h4.588c2.476 0 4.49 2.014 4.49 4.49s-2.014 4.491-4.49 4.491zM12.735 7.51h3.117c1.665 0 3.019-1.355 3.019-3.019s-1.355-3.019-3.019-3.019h-3.117V7.51zm0 1.471H8.148c-2.476 0-4.49-2.014-4.49-4.49S5.672 0 8.148 0h4.588v8.981zm-4.587-7.51c-1.665 0-3.019 1.355-3.019 3.019s1.354 3.02 3.019 3.02h3.117V1.471H8.148zm4.587 15.019H8.148c-2.476 0-4.49-2.014-4.49-4.49s2.014-4.49 4.49-4.49h4.588v8.98zM8.148 8.981c-1.665 0-3.019 1.355-3.019 3.019s1.355 3.019 3.019 3.019h3.117V8.981H8.148zM8.172 24c-2.489 0-4.515-2.014-4.515-4.49s2.014-4.49 4.49-4.49h4.588v4.441c0 2.503-2.047 4.539-4.563 4.539zm-.024-7.51a3.023 3.023 0 0 0-3.019 3.019c0 1.665 1.365 3.019 3.044 3.019 1.705 0 3.093-1.376 3.093-3.068v-2.97H8.148zm7.704 0h-.098c-2.476 0-4.49-2.014-4.49-4.49s2.014-4.49 4.49-4.49h.098c2.476 0 4.49 2.014 4.49 4.49s-2.014 4.49-4.49 4.49zm-.097-7.509c-1.665 0-3.019 1.355-3.019 3.019s1.355 3.019 3.019 3.019h.098c1.665 0 3.019-1.355 3.019-3.019s-1.355-3.019-3.019-3.019h-.098z"/></svg>

<svg width="24" height="24" viewBox="0 0 24 24" fill="none" xmlns="http://www.w3.org/2000/svg">
<path d="M15.852 8.981H11.264V0H15.852C18.328 0 20.342 2.014 20.342 4.49C20.342 6.966 18.328 8.981 15.852 8.981V8.981ZM12.735 7.51H15.852C17.517 7.51 18.871 6.155 18.871 4.491C18.871 2.827 17.516 1.472 15.852 1.472H12.735V7.51V7.51ZM12.735 8.981H8.148C5.672 8.981 3.658 6.967 3.658 4.491C3.658 2.015 5.672 0 8.148 0H12.736V8.981H12.735ZM8.148 1.471C6.483 1.471 5.129 2.826 5.129 4.49C5.129 6.154 6.483 7.51 8.148 7.51H11.265V1.471H8.148ZM12.735 16.49H8.148C5.672 16.49 3.658 14.476 3.658 12C3.658 9.524 5.672 7.51 8.148 7.51H12.736V16.49H12.735ZM8.148 8.981C6.483 8.981 5.129 10.336 5.129 12C5.129 13.664 6.484 15.019 8.148 15.019H11.265V8.981H8.148ZM8.172 24C5.683 24 3.657 21.986 3.657 19.51C3.657 17.034 5.671 15.02 8.147 15.02H12.735V19.461C12.735 21.964 10.688 24 8.172 24V24ZM8.148 16.49C7.34763 16.4911 6.58035 16.8095 6.01441 17.3754C5.44847 17.9414 5.13006 18.7086 5.129 19.509C5.129 21.174 6.494 22.528 8.173 22.528C9.878 22.528 11.266 21.152 11.266 19.46V16.49H8.148V16.49ZM15.852 16.49H15.754C13.278 16.49 11.264 14.476 11.264 12C11.264 9.524 13.278 7.51 15.754 7.51H15.852C18.328 7.51 20.342 9.524 20.342 12C20.342 14.476 18.328 16.49 15.852 16.49V16.49ZM15.755 8.981C14.09 8.981 12.736 10.336 12.736 12C12.736 13.664 14.091 15.019 15.755 15.019H15.853C17.518 15.019 18.872 13.664 18.872 12C18.872 10.336 17.517 8.981 15.853 8.981H15.755V8.981Z" fill="#0DBD8B"/>
</svg>
